dist/img/svg/calendar-icon.svg

<svg width="40" height="37" viewBox="0 0 40 37" fill="none" xmlns="http://www.w3.org/2000/svg">
<path fill-rule="evenodd" clip-rule="evenodd" d="M39.2381 36.5714H0.761905C0.340571 36.5714 0 36.2308 0 35.8103V5.33333C0 4.91275 0.340571 4.57219 0.761905 4.57219H13.1429V0.762665C13.1429 0.342093 13.4834 0 13.9048 0C14.3261 0 14.6667 0.342093 14.6667 0.762665V4.57219H25.3333V0.762665C25.3333 0.342093 25.6739 0 26.0952 0C26.5166 0 26.8571 0.342093 26.8571 0.762665V4.57219H39.2381C39.6594 4.57219 40 4.91275 40 5.33333V35.8103C40 36.2308 39.6594 36.5714 39.2381 36.5714ZM38.4762 6.09599H26.8571V8.38094C26.8571 8.80227 26.5166 9.14361 26.0952 9.14361C25.6739 9.14361 25.3333 8.80227 25.3333 8.38094V6.09599H14.6667V8.38094C14.6667 8.80227 14.3261 9.14361 13.9048 9.14361C13.4834 9.14361 13.1429 8.80227 13.1429 8.38094V6.09599H1.52381V11.4293H38.4762V6.09599ZM38.4762 12.9524H1.52381V35.0484H38.4762V12.9524Z" fill="#F2C94C"/>
<path fill-rule="evenodd" clip-rule="evenodd" d="M39.2381 36.5714H0.761905C0.340571 36.5714 0 36.2308 0 35.8103V5.33333C0 4.91275 0.340571 4.57219 0.761905 4.57219H13.1429V0.762665C13.1429 0.342093 13.4834 0 13.9048 0C14.3261 0 14.6667 0.342093 14.6667 0.762665V4.57219H25.3333V0.762665C25.3333 0.342093 25.6739 0 26.0952 0C26.5166 0 26.8571 0.342093 26.8571 0.762665V4.57219H39.2381C39.6594 4.57219 40 4.91275 40 5.33333V35.8103C40 36.2308 39.6594 36.5714 39.2381 36.5714ZM38.4762 6.09599H26.8571V8.38094C26.8571 8.80227 26.5166 9.14361 26.0952 9.14361C25.6739 9.14361 25.3333 8.80227 25.3333 8.38094V6.09599H14.6667V8.38094C14.6667 8.80227 14.3261 9.14361 13.9048 9.14361C13.4834 9.14361 13.1429 8.80227 13.1429 8.38094V6.09599H1.52381V11.4293H38.4762V6.09599ZM38.4762 12.9524H1.52381V35.0484H38.4762V12.9524Z" fill="url(#paint0_linear)"/>
<path d="M15.7585 16.4C15.4735 16.2827 15.1467 16.3467 14.928 16.5646L12.3063 19.187C12.0084 19.4842 12.0084 19.9665 12.3063 20.2644C12.6034 20.5615 13.0857 20.5615 13.3829 20.2644L14.7048 18.9432V30.2133C14.7048 30.6339 15.0453 30.9752 15.4667 30.9752C15.888 30.9752 16.2286 30.6339 16.2286 30.2133V17.104C16.2286 16.7954 16.0434 16.5181 15.7585 16.4Z" fill="#F2C94C"/>
<path d="M15.7585 16.4C15.4735 16.2827 15.1467 16.3467 14.928 16.5646L12.3063 19.187C12.0084 19.4842 12.0084 19.9665 12.3063 20.2644C12.6034 20.5615 13.0857 20.5615 13.3829 20.2644L14.7048 18.9432V30.2133C14.7048 30.6339 15.0453 30.9752 15.4667 30.9752C15.888 30.9752 16.2286 30.6339 16.2286 30.2133V17.104C16.2286 16.7954 16.0434 16.5181 15.7585 16.4Z" fill="url(#paint1_linear)"/>
<path d="M26.1326 16.4731L20.0373 16.4808C19.6168 16.4808 19.2762 16.8221 19.2762 17.2419V21.8141C19.2762 22.2347 19.6168 22.5752 20.0381 22.5752H23.0857C25.0507 22.5752 26.1333 23.827 26.1333 26.0998C26.1333 28.3863 25.1642 29.4514 23.0857 29.4514C20.9653 29.4514 20.8 27.6868 20.8 27.1467C20.8 26.7261 20.4594 26.3848 20.0381 26.3848C19.6168 26.3848 19.2762 26.7261 19.2762 27.1467C19.2762 29.0522 20.4541 30.9752 23.0857 30.9752C25.9909 30.9752 27.6571 29.1977 27.6571 26.0998C27.6571 22.3779 25.2952 21.0514 23.0857 21.0514H20.8V18.003L26.1341 17.9969C26.5554 17.9962 26.896 17.6548 26.8952 17.2335C26.8945 16.8129 26.5531 16.4731 26.1326 16.4731Z" fill="#F2C94C"/>
<path d="M26.1326 16.4731L20.0373 16.4808C19.6168 16.4808 19.2762 16.8221 19.2762 17.2419V21.8141C19.2762 22.2347 19.6168 22.5752 20.0381 22.5752H23.0857C25.0507 22.5752 26.1333 23.827 26.1333 26.0998C26.1333 28.3863 25.1642 29.4514 23.0857 29.4514C20.9653 29.4514 20.8 27.6868 20.8 27.1467C20.8 26.7261 20.4594 26.3848 20.0381 26.3848C19.6168 26.3848 19.2762 26.7261 19.2762 27.1467C19.2762 29.0522 20.4541 30.9752 23.0857 30.9752C25.9909 30.9752 27.6571 29.1977 27.6571 26.0998C27.6571 22.3779 25.2952 21.0514 23.0857 21.0514H20.8V18.003L26.1341 17.9969C26.5554 17.9962 26.896 17.6548 26.8952 17.2335C26.8945 16.8129 26.5531 16.4731 26.1326 16.4731Z" fill="url(#paint2_linear)"/>
<defs>
<linearGradient id="paint0_linear" x1="4" y1="6.26304e-06" x2="42.2984" y2="28.4146" gradientUnits="userSpaceOnUse">
<stop stop-color="white" stop-opacity="0.5"/>
<stop offset="1" stop-color="white" stop-opacity="0.1"/>
</linearGradient>
<linearGradient id="paint1_linear" x1="4" y1="6.26304e-06" x2="42.2984" y2="28.4146" gradientUnits="userSpaceOnUse">
<stop stop-color="white" stop-opacity="0.5"/>
<stop offset="1" stop-color="white" stop-opacity="0.1"/>
</linearGradient>
<linearGradient id="paint2_linear" x1="4" y1="6.26304e-06" x2="42.2984" y2="28.4146" gradientUnits="userSpaceOnUse">
<stop stop-color="white" stop-opacity="0.5"/>
<stop offset="1" stop-color="white" stop-opacity="0.1"/>
</linearGradient>
</defs>
</svg>

<svg width="40" height="37" viewBox="0 0 40 37" fill="none" xmlns="http://www.w3.org/2000/svg"><path fill-rule="evenodd" clip-rule="evenodd" d="M39.238 36.571H.762a.761.761 0 01-.762-.76V5.332c0-.42.34-.76.762-.76h12.38V.762a.762.762 0 111.525 0v3.81h10.666V.762a.762.762 0 111.524 0v3.81h12.381a.76.76 0 01.762.76V35.81a.76.76 0 01-.762.761zm-.762-30.475H26.857v2.285a.762.762 0 11-1.524 0V6.096H14.667v2.285a.762.762 0 11-1.524 0V6.096H1.523v5.333h36.953V6.096zm0 6.856H1.524v22.096h36.952V12.952z" fill="#F2C94C"/><path fill-rule="evenodd" clip-rule="evenodd" d="M39.238 36.571H.762a.761.761 0 01-.762-.76V5.332c0-.42.34-.76.762-.76h12.38V.762a.762.762 0 111.525 0v3.81h10.666V.762a.762.762 0 111.524 0v3.81h12.381a.76.76 0 01.762.76V35.81a.76.76 0 01-.762.761zm-.762-30.475H26.857v2.285a.762.762 0 11-1.524 0V6.096H14.667v2.285a.762.762 0 11-1.524 0V6.096H1.523v5.333h36.953V6.096zm0 6.856H1.524v22.096h36.952V12.952z" fill="url(#paint0_linear)"/><path d="M15.758 16.4a.763.763 0 00-.83.165l-2.622 2.622a.761.761 0 101.077 1.077l1.322-1.32v11.27a.762.762 0 101.524 0v-13.11a.761.761 0 00-.47-.704z" fill="#F2C94C"/><path d="M15.758 16.4a.763.763 0 00-.83.165l-2.622 2.622a.761.761 0 101.077 1.077l1.322-1.32v11.27a.762.762 0 101.524 0v-13.11a.761.761 0 00-.47-.704z" fill="url(#paint1_linear)"/><path d="M26.133 16.473l-6.096.008a.761.761 0 00-.76.76v4.573c0 .42.34.761.761.761h3.048c1.965 0 3.047 1.252 3.047 3.525 0 2.286-.969 3.351-3.047 3.351-2.12 0-2.286-1.764-2.286-2.304a.762.762 0 10-1.524 0c0 1.905 1.178 3.828 3.81 3.828 2.905 0 4.571-1.777 4.571-4.875 0-3.722-2.362-5.049-4.571-5.049H20.8v-3.048l5.334-.006a.762.762 0 10-.001-1.524z" fill="#F2C94C"/><path d="M26.133 16.473l-6.096.008a.761.761 0 00-.76.76v4.573c0 .42.34.761.761.761h3.048c1.965 0 3.047 1.252 3.047 3.525 0 2.286-.969 3.351-3.047 3.351-2.12 0-2.286-1.764-2.286-2.304a.762.762 0 10-1.524 0c0 1.905 1.178 3.828 3.81 3.828 2.905 0 4.571-1.777 4.571-4.875 0-3.722-2.362-5.049-4.571-5.049H20.8v-3.048l5.334-.006a.762.762 0 10-.001-1.524z" fill="url(#paint2_linear)"/><defs><linearGradient id="paint0_linear" x1="4" y1="0" x2="42.298" y2="28.415" gradientUnits="userSpaceOnUse"><stop stop-color="#fff" stop-opacity=".5"/><stop offset="1" stop-color="#fff" stop-opacity=".1"/></linearGradient><linearGradient id="paint1_linear" x1="4" y1="0" x2="42.298" y2="28.415" gradientUnits="userSpaceOnUse"><stop stop-color="#fff" stop-opacity=".5"/><stop offset="1" stop-color="#fff" stop-opacity=".1"/></linearGradient><linearGradient id="paint2_linear" x1="4" y1="0" x2="42.298" y2="28.415" gradientUnits="userSpaceOnUse"><stop stop-color="#fff" stop-opacity=".5"/><stop offset="1" stop-color="#fff" stop-opacity=".1"/></linearGradient></defs></svg>
